packages/dnb-ui-lib/assets/icons/coins_2_medium.svg

<svg width="24" height="24" viewBox="0 0 24 24" fill="none" xmlns="http://www.w3.org/2000/svg">
<path d="M12.75 3.75C12.75 5.40685 10.0637 6.75 6.75 6.75C3.43629 6.75 0.75 5.40685 0.75 3.75M12.75 3.75C12.75 2.09315 10.0637 0.75 6.75 0.75C3.43629 0.75 0.75 2.09315 0.75 3.75M12.75 3.75V9M0.75 3.75V18.75C0.75 20.407 3.436 21.75 6.75 21.75C7.33618 21.7509 7.92128 21.7062 8.5 21.6162M12.75 6.75C12.75 8.407 10.064 9.75 6.75 9.75C3.436 9.75 0.75 8.407 0.75 6.75M0.75 15.75C0.75 17.407 3.436 18.75 6.75 18.75C7.33618 18.7509 7.92128 18.7062 8.5 18.6162M0.75 12.75C0.75 14.407 3.436 15.75 6.75 15.75C7.33618 15.7509 7.92128 15.7062 8.5 15.6162M0.75 9.75C0.75 11.407 3.436 12.75 6.75 12.75C7.33618 12.7509 7.92128 12.7062 8.5 12.6162M23.25 14.25C23.25 15.9069 20.5637 17.25 17.25 17.25C13.9363 17.25 11.25 15.9069 11.25 14.25M23.25 14.25C23.25 12.5931 20.5637 11.25 17.25 11.25C13.9363 11.25 11.25 12.5931 11.25 14.25M23.25 14.25V20.25C23.25 21.907 20.564 23.25 17.25 23.25C13.936 23.25 11.25 21.907 11.25 20.25V14.25M23.25 17.25C23.25 18.907 20.564 20.25 17.25 20.25C13.936 20.25 11.25 18.907 11.25 17.25" stroke="black" stroke-width="1.5" stroke-linecap="round" stroke-linejoin="round"/>
</svg>

<svg width="24" height="24" viewBox="0 0 24 24" fill="none" xmlns="http://www.w3.org/2000/svg"><path d="M12.75 3.75c0 1.657-2.686 3-6 3s-6-1.343-6-3m12 0c0-1.657-2.686-3-6-3s-6 1.343-6 3m12 0V9m-12-5.25v15c0 1.657 2.686 3 6 3 .586 0 1.171-.044 1.75-.134M12.75 6.75c0 1.657-2.686 3-6 3s-6-1.343-6-3m0 9c0 1.657 2.686 3 6 3 .586 0 1.171-.044 1.75-.134M.75 12.75c0 1.657 2.686 3 6 3 .586 0 1.171-.044 1.75-.134M.75 9.75c0 1.657 2.686 3 6 3 .586 0 1.171-.044 1.75-.134m14.75 1.634c0 1.657-2.686 3-6 3s-6-1.343-6-3m12 0c0-1.657-2.686-3-6-3s-6 1.343-6 3m12 0v6c0 1.657-2.686 3-6 3s-6-1.343-6-3v-6m12 3c0 1.657-2.686 3-6 3s-6-1.343-6-3" stroke="#000" stroke-width="1.5" stroke-linecap="round" stroke-linejoin="round"/></svg>
